fs/pin_off_24_filled.svg

<svg viewBox="0 0 24 24" fill="none" xmlns="http://www.w3.org/2000/svg" height="1em" width="1em">
  <path d="M3.28035 2.21967C2.98746 1.92678 2.51258 1.92677 2.21968 2.21966C1.92678 2.51255 1.92677 2.98742 2.21967 3.28032L8.12461 9.18526L4.81064 10.3301C3.93794 10.6315 3.68202 11.7426 4.3349 12.3954L7.43942 15.4999L3.00009 19.9392L3.00001 20.9999H4.06077L8.50009 16.5605L11.6046 19.665C12.2575 20.3179 13.3686 20.062 13.67 19.1893L14.8148 15.8755L20.7197 21.7803C21.0125 22.0732 21.4874 22.0732 21.7803 21.7803C22.0732 21.4874 22.0732 21.0126 21.7803 20.7197L3.28035 2.21967ZM20.3537 12.1617L17.0137 13.8317L10.1684 6.98637L11.8383 3.6465C12.6778 1.96763 14.9153 1.60453 16.2426 2.93179L21.0684 7.75751C22.3957 9.08476 22.0326 11.3223 20.3537 12.1617Z" fill="#212121"/>
</svg>

<svg viewBox="0 0 24 24" fill="none" xmlns="http://www.w3.org/2000/svg" height="1em" width="1em">
  <path d="M3.28 2.22a.75.75 0 0 0-1.06 1.06l5.905 5.905L4.81 10.33a1.25 1.25 0 0 0-.476 2.065L7.439 15.5 3 19.94V21h1.06l4.44-4.44 3.105 3.105a1.25 1.25 0 0 0 2.065-.476l1.145-3.313 5.905 5.904a.75.75 0 1 0 1.06-1.06L3.28 2.22Zm17.074 9.942-3.34 1.67-6.846-6.846 1.67-3.34a2.75 2.75 0 0 1 4.405-.714l4.825 4.826a2.75 2.75 0 0 1-.714 4.404Z" fill="#212121"/>
</svg>
